overlay/pineapple/modules/Filters/module_icon.svg

<svg xmlns="http://www.w3.org/2000/svg" viewBox="0 0 256 256"  fill="gray" xmlns:v="https://vecta.io/nano"><path d="M33.8 55.5l71.2 84.8v64l46-18.9v-45.1l71.2-84.8zM128 213.4c-10.9 0-19.8 8.9-19.8 19.8S117.1 253 128 253s19.8-8.9 19.8-19.8-8.9-19.8-19.8-19.8zm0 27.3c-4.1 0-7.5-3.4-7.5-7.5s3.4-7.5 7.5-7.5 7.5 3.4 7.5 7.5-3.4 7.5-7.5 7.5zm0-198.1c10.9 0 19.8-8.9 19.8-19.8S138.9 3 128 3s-19.8 8.9-19.8 19.8 8.9 19.8 19.8 19.8zm0-27.3c4.1 0 7.5 3.4 7.5 7.5s-3.4 7.5-7.5 7.5-7.5-3.4-7.5-7.5 3.4-7.5 7.5-7.5zM67.9 42.6c10.9 0 19.8-8.9 19.8-19.8S78.8 3 67.9 3s-19.8 8.9-19.8 19.8S57 42.6 67.9 42.6zm0-27.3c4.1 0 7.5 3.4 7.5 7.5s-3.4 7.5-7.5 7.5-7.5-3.4-7.5-7.5 3.4-7.5 7.5-7.5zm120.2 27.3c10.9 0 19.8-8.9 19.8-19.8S199 3 188.1 3s-19.8 8.9-19.8 19.8 8.9 19.8 19.8 19.8zm0-27.3c4.1 0 7.5 3.4 7.5 7.5s-3.4 7.5-7.5 7.5-7.5-3.4-7.5-7.5 3.4-7.5 7.5-7.5z"/></svg>

<?xml version="1.0" encoding="utf-8"?>
<!-- Generator: Adobe Illustrator 21.1.0, SVG Export Plug-In . SVG Version: 6.00 Build 0)  -->
<svg version="1.1" id="Layer_1" xmlns="http://www.w3.org/2000/svg" xmlns:xlink="http://www.w3.org/1999/xlink" x="0px" y="0px"
	 viewBox="0 0 256 256" style="enable-background:new 0 0 256 256;" xml:space="preserve">
<style type="text/css">
	.st0{fill:#808080;}
</style>
<g>
	<polygon class="st0" points="33.8,55.5 105,140.3 105,204.3 151,185.4 151,140.3 222.2,55.5 	"/>
	<path class="st0" d="M128,213.4c-10.9,0-19.8,8.9-19.8,19.8c0,10.9,8.9,19.8,19.8,19.8c10.9,0,19.8-8.9,19.8-19.8
		C147.8,222.3,138.9,213.4,128,213.4z M128,240.7c-4.1,0-7.5-3.4-7.5-7.5c0-4.1,3.4-7.5,7.5-7.5s7.5,3.4,7.5,7.5
		C135.5,237.3,132.1,240.7,128,240.7z"/>
	<path class="st0" d="M128,42.6c10.9,0,19.8-8.9,19.8-19.8C147.8,11.9,138.9,3,128,3c-10.9,0-19.8,8.9-19.8,19.8
		C108.2,33.7,117.1,42.6,128,42.6z M128,15.3c4.1,0,7.5,3.4,7.5,7.5c0,4.1-3.4,7.5-7.5,7.5s-7.5-3.4-7.5-7.5
		C120.5,18.7,123.9,15.3,128,15.3z"/>
	<path class="st0" d="M67.9,42.6c10.9,0,19.8-8.9,19.8-19.8C87.7,11.9,78.8,3,67.9,3s-19.8,8.9-19.8,19.8
		C48.1,33.7,57,42.6,67.9,42.6z M67.9,15.3c4.1,0,7.5,3.4,7.5,7.5c0,4.1-3.4,7.5-7.5,7.5s-7.5-3.4-7.5-7.5
		C60.4,18.7,63.8,15.3,67.9,15.3z"/>
	<path class="st0" d="M188.1,42.6c10.9,0,19.8-8.9,19.8-19.8C207.9,11.9,199,3,188.1,3c-10.9,0-19.8,8.9-19.8,19.8
		C168.3,33.7,177.2,42.6,188.1,42.6z M188.1,15.3c4.1,0,7.5,3.4,7.5,7.5c0,4.1-3.4,7.5-7.5,7.5s-7.5-3.4-7.5-7.5
		C180.6,18.7,184,15.3,188.1,15.3z"/>
</g>
</svg>
